X: 737
T: Jianli minbin
%%abc-version 2.0
%%abcx-abcm2ps-target-version 5.9.1 (29 Sep 2008)
%%abc-creator hum2abc beta
%%abcx-conversion-date 2013/10/02 07:52:30
%%abc-edited-by Helmut Schaffrath
%%humdrum-veritas 2297178878
%%humdrum-veritas-data 4029553864
%%continueall 1
%%barnumbers 0
L: 1/8
M: 2/4
K: G
d d d A [I:setbarnb 1]| 
d3e | 
c B d A | 
G4 | 
A A d B/ d/ | 
A> Ad2 | 
G G A, E | 
D4 |]  



